send-check-outline.svg

<svg fill="currentColor" viewBox="0 0 24 24"><path d="M2 3v7l15 2-15 2v7l21-9M4 6.03l7.53 3.22-7.53-1m7.53 6.5L4 17.97v-2.22m18-.25L18.5 19l-2-2-1.5 1.5 3.5 3.5 5-5Z"/></svg>

<svg  viewBox="0 0 24 24" fill="currentColor"><path  d="M2 3V10L17 12L2 14V21L23 12M4 6.03L11.53 9.25L4 8.25M11.53 14.75L4 17.97V15.75M22 15.5L18.5 19L16.5 17L15 18.5L18.5 22L23.5 17Z"/></svg>
